X: 3029
T: Minuet
%R: minuet, waltz
B: Henry Playford "Apollo's Banquet", London 1687 (5th Edition)
F: https://archive.org/details/apollosbanquetco01rugg
Z: 2017 John Chambers <jc:trillian.mit.edu>
N: Initial "pickup" rest added to fix the rhythm of repeats.
M: 3/4
L: 1/8
K: G
% - - - - - - - - - -
z2 |\
GA B2 B2 | Bc d2 d2 | g2 g2 e2 | d2 B2 B2 |\
ed ef ef | d2 B2 B2 | Bc dc BA | G4 :: G2 |\
B2 B2 B2 | B2 GA Bc | d2 ed cB | A4 A2 |
BA Bc B2 | B2 GA Bc | d2 ed cB | A4 A2 |\
B2 B2 B2 | B2 GA Bc | d2 ed cB | A3 e fg |\
e2 de dc | B2 GA B2 | cB AB A^F | HG4 |]
% - - - - - - - - - -

%%sep 1 1 500
%%sep 1 1 500

